Numix/64/mimetypes/image-openraster.svg

<?xml version="1.0" encoding="UTF-8" standalone="no"?>
<svg
   xmlns:dc="http://purl.org/dc/elements/1.1/"
   xmlns:cc="http://creativecommons.org/ns#"
   xmlns:rdf="http://www.w3.org/1999/02/22-rdf-syntax-ns#"
   xmlns:svg="http://www.w3.org/2000/svg"
   xmlns="http://www.w3.org/2000/svg"
   xmlns:sodipodi="http://sodipodi.sourceforge.net/DTD/sodipodi-0.dtd"
   xmlns:inkscape="http://www.inkscape.org/namespaces/inkscape"
   width="64px"
   height="64px"
   viewBox="0 0 64 64"
   version="1.1"
   id="svg2"
   inkscape:version="0.91 r13725"
   sodipodi:docname="image-openraster.svg">
  <metadata
     id="metadata25">
    <rdf:RDF>
      <cc:Work
         rdf:about="">
        <dc:format>image/svg+xml</dc:format>
        <dc:type
           rdf:resource="http://purl.org/dc/dcmitype/StillImage" />
        <dc:title />
      </cc:Work>
    </rdf:RDF>
  </metadata>
  <defs
     id="defs23" />
  <sodipodi:namedview
     pagecolor="#ffffff"
     bordercolor="#666666"
     borderopacity="1"
     objecttolerance="10"
     gridtolerance="10"
     guidetolerance="10"
     inkscape:pageopacity="0"
     inkscape:pageshadow="2"
     inkscape:window-width="1366"
     inkscape:window-height="704"
     id="namedview21"
     showgrid="false"
     inkscape:zoom="1"
     inkscape:cx="34.839648"
     inkscape:cy="3.774839"
     inkscape:window-x="0"
     inkscape:window-y="27"
     inkscape:window-maximized="1"
     inkscape:current-layer="svg2"
     showguides="false">
    <inkscape:grid
       type="xygrid"
       id="grid4141" />
  </sodipodi:namedview>
  <g
     id="surface1">
    <path
       style=" stroke:none;fill-rule:nonzero;fill:rgb(21.960784%,63.921569%,30.588235%);fill-opacity:1;"
       d="M 10.671875 0 C 9.296875 0 8 1.355469 8 2.789062 L 8 61.210938 C 8 62.566406 9.375 64 10.671875 64 L 53.328125 64 C 54.625 64 56 62.566406 56 61.210938 L 56 18 L 38 0 Z M 10.671875 0 "
       id="path5" />
    <path
       style=" stroke:none;fill-rule:nonzero;fill:rgb(0%,0%,0%);fill-opacity:0.196078;"
       d="M 42 18 L 56 32 L 56 18 Z M 42 18 "
       id="path7" />
    <path
       style=" stroke:none;fill-rule:nonzero;fill:rgb(100%,100%,100%);fill-opacity:0.392157;"
       d="M 38 0 L 55.984375 18 L 40.757812 18 C 39.410156 18 38 16.574219 38 15.226562 Z M 38 0 "
       id="path9" />
    <path
       style="fill:#ffffff;fill-opacity:1;fill-rule:nonzero;stroke:none"
       d="M 23.289062,22 C 22.585938,22.066406 21.984375,22.8125 22,23.605469 l 0,16.828125 c 0.0078,0.828125 0.667969,1.574218 1.40625,1.566406 l 17.222656,0 C 41.355469,41.984375 41.992188,41.253906 42,40.433594 L 42,23.605469 C 42.015625,22.769531 41.371094,22.007812 40.628906,22 Z M 24,24 40,24 40,35.402344 35.296875,30.085938 32.316406,32.859375 28.386719,27.9375 24,33.597656 Z"
       id="path11"
       inkscape:connector-curvature="0"
       sodipodi:nodetypes="ccccccccccccccccc" />
    <path
       style=" stroke:none;fill-rule:nonzero;fill:rgb(0%,0%,0%);fill-opacity:0.196078;"
       d="M 8 48 L 8 61.335938 C 8 62.632812 9.375 64 10.664062 64 L 53.335938 64 C 54.625 64 56 62.632812 56 61.335938 L 56 48 Z M 8 48 "
       id="path13" />
  </g>
  <path
     style="fill:#ffffff"
     inkscape:connector-curvature="0"
     id="path22"
     d="m 20.291235,56.495896 c 0,0.52513 0.02558,1.017437 0.05967,1.476924 0.05967,0.451281 0.153408,0.84513 0.28125,1.18154 0.153388,0.336409 0.349432,0.598974 0.605115,0.795896 0.25568,0.196923 0.836608,0.295386 1.262743,0.295386 0.417614,0 0.990912,-0.09847 1.24659,-0.295386 0.264205,-0.196922 0.468753,-0.459487 0.605115,-0.795896 0.144885,-0.352821 0.238636,-0.746666 0.281251,-1.197949 0.05114,-0.451285 0.07671,-0.935385 0.07671,-1.460515 0,-0.51692 -0.02557,-1.001022 -0.07671,-1.452307 -0.04259,-0.46769 -0.136346,-0.861538 -0.281251,-1.19795 -0.136347,-0.336409 -0.332387,-0.598975 -0.588072,-0.795897 -0.25568,-0.196921 -0.828974,-0.295384 -1.263636,-0.295384 -0.426135,0 -1.007062,0.09846 -1.262744,0.295384 -0.255682,0.196922 -0.451705,0.467695 -0.605114,0.812309 -0.127823,0.336412 -0.221588,0.730255 -0.28125,1.181538 -0.03411,0.451285 -0.05967,0.935387 -0.05967,1.452307 m -2.291232,0 c 0,-1.84615 0.40057,-3.241025 1.193181,-4.176408 C 19.985799,51.367692 21.093753,50.9 22.5,50.9 c 1.465912,0 2.582386,0.467692 3.349436,1.419488 C 26.61648,53.254871 27,54.649746 27,56.495896 c 0,1.85436 -0.392043,3.249231 -1.167608,4.201028 C 25.048294,61.632308 23.94887,62.1 22.525569,62.1 c -1.465908,0 -2.590908,-0.467692 -3.374999,-1.403076 -0.767045,-0.951797 -1.150567,-2.346668 -1.150567,-4.201028"
     sodipodi:nodetypes="cccsscccsccssccccccscscscc" />
  <path
     style="fill:#ffffff"
     inkscape:connector-curvature="0"
     id="path16-8"
     d="m 31.719286,50.925023 c 0.665672,0 1.267944,0.06491 1.80682,0.210952 0.538872,0.137928 1.006424,0.356996 1.394732,0.657198 0.38831,0.292085 0.689446,0.665311 0.887563,1.127781 0.213962,0.446244 0.316983,0.981736 0.316983,1.590253 0,0.64097 -0.134725,1.217029 -0.412082,1.736296 -0.27736,0.519268 -0.736989,0.916831 -1.370963,1.184577 C 35.380275,58.887818 36.157345,60.435353 36.902,62 l -2.432866,0 c -0.593119,-1.466332 -1.467405,-2.790471 -2.242671,-4.032425 l -1.300704,0 0,4.032425 -2.225759,0 0,-10.791001 c 1.005736,-0.230418 2.006595,-0.23867 3.019286,-0.283999 m 2.052482,3.569955 c 0,-0.576063 -0.190189,-0.997967 -0.562648,-1.273822 -0.380383,-0.267751 -0.871711,-0.40568 -1.489834,-0.40568 -0.241811,-0.0057 -0.570063,0.03854 -0.793527,0.05671 l 0,3.285983 0.603336,0 c 0.792466,0 1.363038,-0.137949 1.719648,-0.421908 0.348682,-0.292087 0.523025,-0.705874 0.523025,-1.241368"
     sodipodi:nodetypes="ccccssccccccccccccccscc" />
  <path
     style="fill:#ffffff"
     inkscape:connector-curvature="0"
     id="path18"
     d="m 44.993547,62 -0.579093,-2.175556 -3.411301,0 L 40.440845,62 37.95,62 c 1.011646,-3.817522 2.292967,-7.494351 3.508138,-11 l 2.677263,0 c 1.339815,3.729329 2.524222,7.499956 3.432599,11 l -2.574452,0 M 42.73382,53.134816 c -0.521184,1.511561 -0.954741,3.392636 -1.28382,4.88074 l 2.550001,0 c -0.280752,-1.558162 -0.815719,-3.430715 -1.266181,-4.88074"
     sodipodi:nodetypes="ccccccccccccc" />
</svg>

<svg xmlns="http://www.w3.org/2000/svg" viewBox="0 0 64 64">
 <g>
  <path d="m 10.672 0 c -1.375 0 -2.672 1.355 -2.672 2.789 l 0 58.42 c 0 1.355 1.375 2.789 2.672 2.789 l 42.656 0 c 1.297 0 2.672 -1.434 2.672 -2.789 l 0 -43.21 l -18 -18 m -27.328 0" style="fill:#37a34d;fill-opacity:1;stroke:none;fill-rule:nonzero"/>
  <path d="m 42 18 l 14 14 l 0 -14 m -14 0" style="fill:#000;fill-opacity:0.196;stroke:none;fill-rule:nonzero"/>
  <path d="m 38 0 l 17.984 18 l -15.227 0 c -1.348 0 -2.758 -1.426 -2.758 -2.773 m 0 -15.227" style="fill:#fff;fill-opacity:0.392;stroke:none;fill-rule:nonzero"/>
  <path d="m 23.289 22 c -0.703 0.066 -1.305 0.813 -1.289 1.605 l 0 16.828 c 0.008 0.828 0.668 1.574 1.406 1.566 l 17.223 0 c 0.727 -0.016 1.363 -0.746 1.371 -1.566 l 0 -16.828 c 0.016 -0.836 -0.629 -1.598 -1.371 -1.605 m -16.629 2 16 0 0 11.402 -4.703 -5.316 -2.98 2.773 -3.93 -4.922 -4.387 5.66" style="fill:#fff;fill-opacity:1;stroke:none;fill-rule:nonzero"/>
  <path d="m 8 48 l 0 13.336 c 0 1.297 1.375 2.664 2.664 2.664 l 42.672 0 c 1.289 0 2.664 -1.367 2.664 -2.664 l 0 -13.336 m -48 0" style="fill:#000;fill-opacity:0.196;stroke:none;fill-rule:nonzero"/>
 </g>
 <path d="m 20.291 56.5 c 0 0.525 0.026 1.017 0.06 1.477 0.06 0.451 0.153 0.845 0.281 1.182 0.153 0.336 0.349 0.599 0.605 0.796 0.256 0.197 0.837 0.295 1.263 0.295 0.418 0 0.991 -0.098 1.247 -0.295 0.264 -0.197 0.469 -0.459 0.605 -0.796 0.145 -0.353 0.239 -0.747 0.281 -1.198 0.051 -0.451 0.077 -0.935 0.077 -1.461 0 -0.517 -0.026 -1 -0.077 -1.452 -0.043 -0.468 -0.136 -0.862 -0.281 -1.198 -0.136 -0.336 -0.332 -0.599 -0.588 -0.796 -0.256 -0.197 -0.829 -0.295 -1.264 -0.295 -0.426 0 -1.01 0.098 -1.263 0.295 -0.256 0.197 -0.452 0.468 -0.605 0.812 -0.128 0.336 -0.222 0.73 -0.281 1.182 -0.034 0.451 -0.06 0.935 -0.06 1.452 m -2.291 0 c 0 -1.846 0.401 -3.241 1.193 -4.176 c 0.793 -0.952 1.901 -1.419 3.307 -1.419 c 1.466 0 2.582 0.468 3.349 1.419 c 0.767 0.935 1.151 2.33 1.151 4.176 c 0 1.854 -0.392 3.249 -1.168 4.201 c -0.784 0.935 -1.884 1.403 -3.307 1.403 c -1.466 0 -2.591 -0.468 -3.375 -1.403 -0.767 -0.952 -1.151 -2.347 -1.151 -4.201" style="fill:#fff"/>
 <path d="m 31.719 50.925 c 0.666 0 1.268 0.065 1.807 0.211 0.539 0.138 1.01 0.357 1.395 0.657 0.388 0.292 0.689 0.665 0.888 1.128 0.214 0.446 0.317 0.982 0.317 1.59 0 0.641 -0.135 1.217 -0.412 1.736 -0.277 0.519 -0.737 0.917 -1.371 1.185 c 1.038 1.456 1.815 3 2.56 4.568 l -2.433 0 c -0.593 -1.466 -1.467 -2.79 -2.243 -4.03 l -1.301 0 0 4.03 -2.226 0 0 -10.791 c 1.01 -0.23 2.01 -0.239 3.02 -0.284 m 2.052 3.57 c 0 -0.576 -0.19 -0.998 -0.563 -1.274 -0.38 -0.268 -0.872 -0.406 -1.49 -0.406 -0.242 -0.006 -0.57 0.039 -0.794 0.057 l 0 3.286 0.603 0 c 0.792 0 1.363 -0.138 1.72 -0.422 0.349 -0.292 0.523 -0.706 0.523 -1.241" style="fill:#fff"/>
 <path d="m 44.994 62 -0.579 -2.176 -3.411 0 l -0.562 2.176 -2.491 0 c 1.012 -3.818 2.293 -7.494 3.508 -11 l 2.677 0 c 1.34 3.729 2.524 7.5 3.433 11 l -2.574 0 m -2.26 -8.865 c -0.521 1.512 -0.955 3.393 -1.284 4.881 l 2.55 0 c -0.281 -1.558 -0.816 -3.431 -1.266 -4.881" style="fill:#fff"/>
</svg>
